dist/img/svg/crown_icon.svg

<svg xmlns="http://www.w3.org/2000/svg" viewBox="0 0 306.65 213.53"><path d="M244.85 196.03H61.79L22.96 68.28l57.46 27.98c1.2.58 2.49.88 3.83.88 2.54 0 4.95-1.1 6.61-3.02l62.46-72.01 62.46 72.01a8.768 8.768 0 006.62 3.02c1.33 0 2.62-.3 3.82-.88l57.47-27.98zm58.73-151.06c-2.6-2.22-6.44-2.71-9.52-1.21L224.6 77.58 159.93 3.01A8.756 8.756 0 00153.32 0c-2.54 0-4.95 1.1-6.61 3.01L82.04 77.58 12.58 43.76a8.634 8.634 0 00-3.83-.88c-2.08 0-4.1.74-5.68 2.09a8.77 8.77 0 00-2.7 9.2l46.56 153.16c1.13 3.71 4.49 6.2 8.38 6.2h196.03c3.88 0 7.24-2.49 8.37-6.2l46.56-153.15a8.776 8.776 0 00-2.69-9.21"/></svg>

<svg xmlns="http://www.w3.org/2000/svg" viewBox="0 0 306.65 213.53">
	<style type="text/css">
		.st0{fill:#000000;}
	</style>
	<path class="st0" d="M244.85,196.03L61.79,196.03L22.96,68.28L80.42,96.26C81.62,96.84 82.91,97.14 84.25,97.14C86.79,97.14 89.2,96.04 90.86,94.12L153.32,22.11L215.78,94.12C217.45,96.04 219.86,97.14 222.4,97.14C223.73,97.14 225.02,96.84 226.22,96.26L283.69,68.28ZM303.58,44.97C300.98,42.75 297.14,42.26 294.06,43.76L224.6,77.58L159.93,3.01C158.27,1.1 155.86,0 153.32,0C150.78,0 148.37,1.1 146.71,3.01L82.04,77.58L12.58,43.76C11.37,43.17 10.09,42.88 8.75,42.88C6.67,42.88 4.65,43.62 3.07,44.97C0.42,47.23 -0.63,50.84 0.37,54.17L46.93,207.33C48.06,211.04 51.42,213.53 55.31,213.53L251.34,213.53C255.22,213.53 258.58,211.04 259.71,207.33L306.27,54.18C307.28,50.84 306.22,47.23 303.58,44.97"/>
</svg>
